!!!COM: Palestrina, Giovanni Perluigi da
!!!OPR: Inviolata
!!!OTL: Agnus I
**kern	**kern	**kern	**kern
*Ibass	*Itenor	*Icalto	*Icant
!Bassus	!Tenor	!Altus	!Cantus
*clefF4	*clefGv2	*clefG2	*clefG2
*k[b-]	*k[b-]	*k[b-]	*k[b-]
*F:ion	*F:ion	*F:ion	*F:ion
*M4/2	*M4/2	*M4/2	*M4/2
=1	=1	=1	=1
0r	0r	1r	1.f
.	.	[1B-	.
.	.	.	2f
=2	=2	=2	=2
0r	0r	2B-]	1f
.	.	2B-	.
.	.	1B-	1g
=3	=3	=3	=3
1.F	0r	1c	1a
.	.	2d	2.f
2F	.	2c	.
.	.	.	4g
=4	=4	=4	=4
1F	0r	2.f	4a
.	.	.	4b-
.	.	.	1cc
.	.	4e	.
1G	.	1d	.
.	.	.	2b
=5	=5	=5	=5
1A	1.F	0c	2.cc
.	.	.	4b-
2.F	.	.	2.a
.	2F	.	.
4G	.	.	4g
=6	=6	=6	=6
4A	1F	0r	2.f
4B-	.	.	.
1c	.	.	.
.	.	.	4e
.	1G	.	1d
2B	.	.	.
=7	=7	=7	=7
2.c	1A	2r	1c
.	.	1c	.
4B-	.	.	.
2.A	2.F	.	2r
.	.	2c	[2f
4G	4G	.	.
=8	=8	=8	=8
2.F	4A	1c	2f]
.	4B-	.	.
.	2.c	.	2f
4E	.	.	.
1D	.	1d	1f
.	4B	.	.
.	4B	.	.
.	4A	.	.
=9	=9	=9	=9
1C	1c	1e	1g
1r	[1F	2.f	1a
.	.	4e	.
=10	=10	=10	=10
1.BB-	1F]	2.d	2.b-
.	.	4c	4a
.	1r	[1B-	2g
2BB-	.	.	2f
=11	=11	=11	=11
1BB-	0r	2B-]	2g
.	.	2A	1f
1C	.	1G	.
.	.	.	2e
=12	=12	=12	=12
1D	2r	1F	1f
.	1F	.	.
2.BB-	.	1B-	2.d
.	2F	.	.
4C	.	.	4e
=13	=13	=13	=13
4D	1F	2.A	4f
4E	.	.	4g
1F	.	.	2a
.	.	4B-	.
.	1G	[1c	1g
2E	.	.	.
=14	=14	=14	=14
1F	1A	0c]	2.cc
.	.	.	4b-
1r	2.F	.	4a
.	.	.	4g
.	.	.	2a
.	4G	.	.
=15	=15	=15	=15
1F	4A	0r	2.f
.	4B-	.	.
.	1c	.	.
.	.	.	4e
1G	.	.	1d
.	2B-	.	.
=16	=16	=16	=16
2F	2A	1c	0r
2E	2G	.	.
4D	4F	1d	.
4E	4G	.	.
4F	4A	.	.
4D	4F	.	.
=17	=17	=17	=17
4E	1G	2c	0r
4F	.	.	.
2.G	.	2B-	.
.	2D	1A	.
4F	.	.	.
[2F	2F	.	.
=18	=18	=18	=18
2F]	1C	2G	1g
2E	.	4c	.
.	.	4B-	.
1F	1r	4A	1a
.	.	4F	.
.	.	[2c	.
=19	=19	=19	=19
2E	1r	4c]	2g
.	.	8B-	.
.	.	8A	.
2D	.	2B	2f
1C	2r	1c	4e
.	.	.	4f
.	2c	.	4g
.	.	.	4e
=20	=20	=20	=20
0r	1d	0r	4f
.	.	.	4g
.	.	.	1a
.	2c	.	.
.	2B-	.	2g
=21	=21	=21	=21
0r	4A	1c	2f
.	4B-	.	.
.	4c	.	4e
.	4A	.	4f
.	2B-	1d	4g
.	.	.	4f
.	2B-	.	[2f
=22	=22	=22	=22
1r	2A	2c	2f]
.	2G	2B-	2e
2r	1F	4A	1f
.	.	4B-	.
2F	.	4c	.
.	.	4A	.
=23	=23	=23	=23
1G	2r	2B-	2.d
.	2B-	2G	.
.	.	.	4e
2F	1c	2A	2f
2E	.	2G	[2g
=24	=24	=24	=24
4D	2B-	1d	2g]
4E	.	.	.
4F	2A	.	2f
4D	.	.	.
4E	4G	1r	1g
4F	4A	.	.
[2G	4B-	.	.
.	4G	.	.
=25	=25	=25	=25
4G]	1.A	1r	1c
4F	.	.	.
1F	.	.	.
.	.	1c	1r
2E	2G	.	.
=26	=26	=26	=26
4D	2B-	1d	1f
4E	.	.	.
4F	2A	.	.
4D	.	.	.
4E	1G	2c	1g
4F	.	.	.
2G	.	2B-	.
=27	=27	=27	=27
2D	1A	4A	2f
.	.	4B-	.
2C	.	4c	2e
.	.	4A	.
2D	2F	4B-	4d
.	.	4c	4e
2BB-	2D	[2d	4f
.	.	.	4d
=28	=28	=28	=28
1C	2G	4d]	4e
.	.	4c	4f
.	2E	1c	2.g
1D	2.F	.	.
.	.	.	4f
.	.	2B	[2f
.	4G	.	.
=29	=29	=29	=29
1C	4A	1c	2f]
.	4B-	.	.
.	1c	.	2e
1r	.	[1G	1d
.	2B	.	.
=30	=30	=30	=30
1C	1c	1G]	1e
2D	2r	2r	[1f
4BB-	[2d	[2B-	.
4C	.	.	.
=31	=31	=31	=31
4D	2d]	2B-]	1f]
4E	.	.	.
1F	2c	2A	.
.	2d	1G	2r
2E	[2c	.	2g
=32	=32	=32	=32
1D	4c]	2F	2a
.	4A	.	.
.	2B	1f	4f
.	.	.	4g
1C	1c	.	4a
.	.	.	4b-
.	.	2e	[2cc
=33	=33	=33	=33
1r	2G	1d	2cc]
.	2G	.	2b
2r	2A	1c	1cc
[2F	4F	.	.
.	4G	.	.
=34	=34	=34	=34
2F]	4A	2r	1cc
.	4B-	.	.
2E	1c	2G	.
1D	.	2A	2r
.	2B	4F	[2f
.	.	4G	.
=35	=35	=35	=35
1C	1c	4A	2f]
.	.	4B-	.
.	.	1c	2e
2r	1G	.	1d
2G	.	2B	.
=36	=36	=36	=36
2A	2r	2.c	1c
1F	2c	.	.
.	.	4B-	.
.	2d	2A	2r
2E	[2c	2G	2g
=37	=37	=37	=37
1D	2c]	1F	2a
.	2B	.	4f
.	.	.	4g
1C	1c	2r	4a
.	.	.	4b-
.	.	2c	[2cc
=38	=38	=38	=38
2r	1G	2d	4cc]
.	.	.	4b-
1G	.	4B-	1b-
.	.	4c	.
.	1r	4d	.
.	.	4e	.
2D	.	[2f	4a
.	.	.	4g
=39	=39	=39	=39
2F	1r	2f]	4a
.	.	.	4b-
2C	.	2e	1cc
1G	2r	1d	.
.	2G	.	2b
=40	=40	=40	=40
1r	2A	2c	2.cc
.	4F	1f	.
.	4G	.	4b-
2r	4A	.	2a
.	4B-	.	.
2C	2c	2e	2g
=41	=41	=41	=41
2D	2A	1.d	2f
4BB-	1B-	.	4d
4C	.	.	4e
4D	.	.	4f
4E	.	.	4g
[2F	4A	2c	[2a
.	4G	.	.
=42	=42	=42	=42
2F]	2F	2A	2a]
2E	2G	1c	2.g
1D	2A	.	.
.	.	.	4f
.	2F	2B	[2f
=43	=43	=43	=43
0C	1G	[0c	2f]
.	.	.	4e
.	.	.	4d
.	2r	.	1e
.	2G	.	.
=44	=44	=44	=44
1FF	2A	1c]	0f
.	4F	.	.
.	4G	.	.
1F	4A	2r	.
.	4B-	.	.
.	4c	2c	.
.	4A	.	.
=45	=45	=45	=45
2BB-	4B-	2d	2r
.	4c	.	.
1BB-	1d	4B-	1f
.	.	4c	.
.	.	4d	.
.	.	4e	.
2AA	2c	[2f	2f
=46	=46	=46	=46
0BB-	0B-	2f]	2.d
.	.	2f	.
.	.	.	4e
.	.	1d	2f
.	.	.	2g
=47	=47	=47	=47
[0FF	[0A	[0c	[0a
=48	=48	=48	=48
0FF]	0A]	0c]	0a]
==	==	==	==
*-	*-	*-	*-
!!!CDT: 1525/^1526/-1594/2/2
!!!OCY: Italia
!!!AGN: Mass (Parody)
!!!AST: renaissance, vocal
!!!ASW: Motet 1532 (Courtois)
!!!PWK: Masses, Book 2
!!!RNB: Cadence finals: C
!!!YOR: Le Opere Complete, v. 4, p. 26
!!!YOO: Rome, Italy: Fratelli Scalera
!!!END: 1992//
!!!EED: John Miller
!!!YEC: Copyright 2000, John Miller
!!!YEN: United States of America
!!!YEM: Rights to all derivative electronic formats reserved.
!!!YEM: Refer to licensing agreement for further details.
!!!YEM: This file must be accompanied by the licensing agreement.
!!!YEM: A copy of the licensing agreement may be found at http://www.music-cog.ohio-state.edu/HumdrumDatabases/Palestrina/license.txt
!!!EMD: converted to Humdrum by Bret Aarden
